!!!SOCIAL_FUNCTION:	corn dance songs
!!!PDT:	1957
!!!OTL: No_33_The_Raingods_Have_Returned.krn
!!!LING_GROUP: Keresan
!!!LANG: Tone
!!!REG: Southwest
**kern
*staff1
=1-
*clefF4
*k[]
*M7/8
8G\L
8G\
8G\
8G\
8G\
8G\
8G\J
=2!|:
*M2/4
8e\L
16e\L
16e\JJ
16f\LL
16e\
16e\
16d\JJ
=3
*M3/4
8c\L
16d\L
16c\JJ
16c\LL
16B\
16A\
16G\JJ
16F\
16r
8A\
=4
*M6/8
8G\L
8G\
8A\J
8G\L
8G\
8A\J
=5
*M5/8
8F\L
8F\
8F\J
8r
8c\
=6
*M6/8
8G\L
8G\
8A\J
8A\L
8G\
8A\J
=7
8G\L
8G\
8A\J
8A\L
8G\
8A\J
=8
8G\L
8G\
8A\J
8A\L
8G\
8A\J
=9
16c\LL
16G\J
8A\
8G\J
8F\L
8F\J
8r
=10
*M2/4
8c\L
8c\J
8c\L
16.A\L
32A\JJk
=11
4A\
8A\L
8A\J
=12
8c\L
8G\J
8G\L
16.A\L
32G\JJk
=13
*M5/8
4G\
8G\L
8G\
8G\J
=14
*M2/4
8c\L
8c\J
8c\L
16.A\L
32A\JJk
=15
4A\
8A\L
8A\J
=16
8c\L
8G\J
8G\L
16.A\L
32G\JJk
=17
4G\
8G\
8r
=18
*M3/4
8c\L
8G\J
8G\L
16.A\L
32G\JJk
4A\
=19
8G\L
8G\J
8G\L
8G\J
8G\
8r
=20
*M7/8
16A\LL
16G\J
8G\
8G\
8G\
16A\L
16G\J
8G\
8G\J
==:|!
*-
